X: 26316
T: Men An Tol
R: polka
M: 2/4
K: Dminor
Ad de|f f/e/ d/c/ B|Ad de|f/e/d/f/ e2|
Ad de|ff f/e/f/g/|aa dd|e/d/c/e/ d2:|
f/e/d/c/ B2|g/f/e/d/ A2|aa g g|f/e/f/g/ e2|
f/e/d/c/ B2|g/f/e/d/ A2|ff e/f/g/e/|fe d2:|

